docs/science/organic/InDraw250714-2007.svg

<svg xmlns="http://www.w3.org/2000/svg" xmlns:xlink="http://www.w3.org/1999/xlink" width="1258" height="220" x="0" y="0" version="1.1" viewBox="638 561 1258 220"><g><g><rect width="1258" height="220" x="638" y="561" fill="none" stroke="none"/><rect width="1258" height="220" x="638" y="561" fill="none" fill-opacity="1" stroke="none"/><g><g><text x="717.955" y="642.295" fill="#000" stroke="none" dominant-baseline="alphabetic" font-family="Arial" font-size="35pt" font-style="normal" font-weight="normal" text-anchor="middle" text-decoration="normal" transform="scale(1,1)">C</text><text x="645.535" y="641.295" fill="#000" stroke="none" dominant-baseline="alphabetic" font-family="Arial" font-size="35pt" font-style="normal" font-weight="normal" text-anchor="start" text-decoration="normal" transform="scale(1,1)">H</text><text x="679.231" y="624.295" fill="#000" stroke="none" dominant-baseline="hanging" font-family="Arial" font-size="28pt" font-style="normal" font-weight="normal" text-anchor="start" text-decoration="normal" transform="scale(1,1)">2</text></g><g><text x="717.955" y="725.239" fill="#000" stroke="none" dominant-baseline="alphabetic" font-family="Arial" font-size="35pt" font-style="normal" font-weight="normal" text-anchor="middle" text-decoration="normal" transform="scale(1,1)">C</text><text x="645.535" y="724.239" fill="#000" stroke="none" dominant-baseline="alphabetic" font-family="Arial" font-size="35pt" font-style="normal" font-weight="normal" text-anchor="start" text-decoration="normal" transform="scale(1,1)">H</text><text x="679.231" y="707.239" fill="#000" stroke="none" dominant-baseline="hanging" font-family="Arial" font-size="28pt" font-style="normal" font-weight="normal" text-anchor="start" text-decoration="normal" transform="scale(1,1)">2</text></g><g><path fill="none" stroke="#111" stroke-linecap="round" stroke-linejoin="round" stroke-miterlimit="10" stroke-width="3.02" d="M 717.9549696000001 655.9946048 L 717.9549696000001 685.4386048" paint-order="fill stroke markers" transform="scale(1,1)"/></g><g><text x="800.899" y="642.295" fill="#000" stroke="none" dominant-baseline="alphabetic" font-family="Arial" font-size="35pt" font-style="normal" font-weight="normal" text-anchor="middle" text-decoration="normal" transform="scale(1,1)">O</text><text x="819.614" y="641.295" fill="#000" stroke="none" dominant-baseline="alphabetic" font-family="Arial" font-size="35pt" font-style="normal" font-weight="normal" text-anchor="start" text-decoration="normal" transform="scale(1,1)">H</text></g><g><path fill="none" stroke="#111" stroke-linecap="round" stroke-linejoin="round" stroke-miterlimit="10" stroke-width="3.02" d="M 737.9549696000001 624.2946048 L 780.3989696000001 624.2946048" paint-order="fill stroke markers" transform="scale(1,1)"/></g><g><text x="800.899" y="725.239" fill="#000" stroke="none" dominant-baseline="alphabetic" font-family="Arial" font-size="35pt" font-style="normal" font-weight="normal" text-anchor="middle" text-decoration="normal" transform="scale(1,1)">O</text><text x="819.614" y="724.239" fill="#000" stroke="none" dominant-baseline="alphabetic" font-family="Arial" font-size="35pt" font-style="normal" font-weight="normal" text-anchor="start" text-decoration="normal" transform="scale(1,1)">H</text></g><g><path fill="none" stroke="#111" stroke-linecap="round" stroke-linejoin="round" stroke-miterlimit="10" stroke-width="3.02" d="M 737.9549696000001 707.2386048 L 780.3989696000001 707.2386048" paint-order="fill stroke markers" transform="scale(1,1)"/></g><g><text x="1008.027" y="647.246" fill="#000" stroke="none" dominant-baseline="alphabetic" font-family="Arial" font-size="35pt" font-style="normal" font-weight="normal" text-anchor="middle" text-decoration="normal" transform="scale(1,1)">C</text><text x="1024.875" y="647.246" fill="#000" stroke="none" dominant-baseline="alphabetic" font-family="Arial" font-size="35pt" font-style="normal" font-weight="normal" text-anchor="start" text-decoration="normal" transform="scale(1,1)">OOH</text></g><g><text x="1008.027" y="730.19" fill="#000" stroke="none" dominant-baseline="alphabetic" font-family="Arial" font-size="35pt" font-style="normal" font-weight="normal" text-anchor="middle" text-decoration="normal" transform="scale(1,1)">C</text><text x="1024.875" y="730.19" fill="#000" stroke="none" dominant-baseline="alphabetic" font-family="Arial" font-size="35pt" font-style="normal" font-weight="normal" text-anchor="start" text-decoration="normal" transform="scale(1,1)">OOH</text></g><g><path fill="none" stroke="#111" stroke-linecap="round" stroke-linejoin="round" stroke-miterlimit="10" stroke-width="3.02" d="M 1008.0267264 653.1935616000001 L 1008.0267264 688.2431616" paint-order="fill stroke markers" transform="scale(1,1)"/></g><g><path fill="none" stroke="#000" stroke-miterlimit="10" stroke-width=".309" d="M 1202.086843093503 670.7142857142858 L 1497.5748430935027 670.7142857142858" paint-order="fill stroke markers" transform="scale(1,1)"/></g><g><path fill="#000" stroke="#000" stroke-miterlimit="10" stroke-width=".309" d="M 1497.574843093503 670.7142857142858 L 1493.983262538928 664.4934857142857 L 1513.1268430935029 670.7142857142858 L 1493.983262538928 676.9350857142858 Z" paint-order="stroke fill markers" transform="scale(1,1)"/></g><g><text x="1653.754" y="647.246" fill="#000" stroke="none" dominant-baseline="alphabetic" font-family="Arial" font-size="35pt" font-style="normal" font-weight="normal" text-anchor="middle" text-decoration="normal" transform="scale(1,1)">C</text><text x="1581.334" y="646.246" fill="#000" stroke="none" dominant-baseline="alphabetic" font-family="Arial" font-size="35pt" font-style="normal" font-weight="normal" text-anchor="start" text-decoration="normal" transform="scale(1,1)">H</text><text x="1615.03" y="629.246" fill="#000" stroke="none" dominant-baseline="hanging" font-family="Arial" font-size="28pt" font-style="normal" font-weight="normal" text-anchor="start" text-decoration="normal" transform="scale(1,1)">2</text></g><g><text x="1725.584" y="605.774" fill="#000" stroke="none" dominant-baseline="alphabetic" font-family="Arial" font-size="35pt" font-style="normal" font-weight="normal" text-anchor="middle" text-decoration="normal" transform="scale(1,1)">O</text></g><g><path fill="none" stroke="#111" stroke-linecap="round" stroke-linejoin="round" stroke-miterlimit="10" stroke-width="3.02" d="M 1673.4860989052574 617.853729899505 L 1705.3515266947427 599.4556769032664" paint-order="fill stroke markers" transform="scale(1,1)"/></g><g><text x="1797.421" y="647.246" fill="#000" stroke="none" dominant-baseline="alphabetic" font-family="Arial" font-size="35pt" font-style="normal" font-weight="normal" text-anchor="middle" text-decoration="normal" transform="scale(1,1)">C</text></g><g><path fill="none" stroke="#111" stroke-linecap="round" stroke-linejoin="round" stroke-miterlimit="10" stroke-width="3.02" d="M 1746.8156529020628 600.031657583179 L 1778.6892750979375 618.4323169734773" paint-order="fill stroke markers" transform="scale(1,1)"/></g><g><text x="1797.421" y="730.19" fill="#000" stroke="none" dominant-baseline="alphabetic" font-family="Arial" font-size="35pt" font-style="normal" font-weight="normal" text-anchor="middle" text-decoration="normal" transform="scale(1,1)">C</text></g><g><path fill="none" stroke="#111" stroke-linecap="round" stroke-linejoin="round" stroke-miterlimit="10" stroke-width="3.02" d="M 1797.4213632 651.0463616000001 L 1797.4213632 690.3903616" paint-order="fill stroke markers" transform="scale(1,1)"/></g><g><text x="1725.584" y="771.662" fill="#000" stroke="none" dominant-baseline="alphabetic" font-family="Arial" font-size="35pt" font-style="normal" font-weight="normal" text-anchor="middle" text-decoration="normal" transform="scale(1,1)">O</text></g><g><path fill="none" stroke="#111" stroke-linecap="round" stroke-linejoin="round" stroke-miterlimit="10" stroke-width="3.02" d="M 1778.6892750979375 723.0044062265226 L 1746.8156529020628 741.4050656168209" paint-order="fill stroke markers" transform="scale(1,1)"/></g><g><text x="1653.754" y="730.19" fill="#000" stroke="none" dominant-baseline="alphabetic" font-family="Arial" font-size="35pt" font-style="normal" font-weight="normal" text-anchor="middle" text-decoration="normal" transform="scale(1,1)">C</text><text x="1581.334" y="729.19" fill="#000" stroke="none" dominant-baseline="alphabetic" font-family="Arial" font-size="35pt" font-style="normal" font-weight="normal" text-anchor="start" text-decoration="normal" transform="scale(1,1)">H</text><text x="1615.03" y="712.19" fill="#000" stroke="none" dominant-baseline="hanging" font-family="Arial" font-size="28pt" font-style="normal" font-weight="normal" text-anchor="start" text-decoration="normal" transform="scale(1,1)">2</text></g><g><path fill="none" stroke="#111" stroke-linecap="round" stroke-linejoin="round" stroke-miterlimit="10" stroke-width="3.02" d="M 1705.3515266947427 741.9810462967336 L 1673.4860989052574 723.582993300495" paint-order="fill stroke markers" transform="scale(1,1)"/></g><g><path fill="none" stroke="#111" stroke-linecap="round" stroke-linejoin="round" stroke-miterlimit="10" stroke-width="3.02" d="M 1653.7540608 690.3903616 L 1653.7540608 660.9463616" paint-order="fill stroke markers" transform="scale(1,1)"/></g><g><text x="1869.251" y="605.774" fill="#000" stroke="none" dominant-baseline="alphabetic" font-family="Arial" font-size="35pt" font-style="normal" font-weight="normal" text-anchor="middle" text-decoration="normal" transform="scale(1,1)">O</text></g><g><path fill="none" stroke="#111" stroke-linecap="round" stroke-linejoin="round" stroke-miterlimit="10" stroke-width="3.02" d="M 1819.6418819783605 622.1637784253193 L 1851.5073097678455 603.7657254290807 M 1814.6649206321547 613.5436813736907 L 1846.5303484216397 595.1456283774521" paint-order="fill stroke markers" transform="scale(1,1)"/></g><g><text x="1869.251" y="771.662" fill="#000" stroke="none" dominant-baseline="alphabetic" font-family="Arial" font-size="35pt" font-style="normal" font-weight="normal" text-anchor="middle" text-decoration="normal" transform="scale(1,1)">O</text></g><g><path fill="none" stroke="#111" stroke-linecap="round" stroke-linejoin="round" stroke-miterlimit="10" stroke-width="3.02" d="M 1814.6649206321547 727.8930418263093 L 1846.5303484216397 746.2910948225478 M 1819.6418819783605 719.2729447746807 L 1851.5073097678455 737.6709977709193" paint-order="fill stroke markers" transform="scale(1,1)"/></g><g><text x="913.037" y="697.929" fill="#000" stroke="none" dominant-baseline="alphabetic" font-family="Arial" font-size="55.296" font-style="normal" font-weight="400" text-anchor="start" text-decoration="normal" transform="scale(1,1)">+</text></g></g></g></g></svg>

<svg xmlns="http://www.w3.org/2000/svg" viewBox="638 561 1258 220" xmlns:xlink="http://www.w3.org/1999/xlink"><defs><path fill="none" d="M638 561h1258v220H638z" id="a"/></defs><use href="#a"/><use href="#a"/><text x="717.96" y="642.29" dominant-baseline="alphabetic" font-family="Arial" font-size="35pt" text-anchor="middle" text-decoration="normal">C</text><text x="645.53" y="641.29" dominant-baseline="alphabetic" font-family="Arial" font-size="35pt" text-decoration="normal">H</text><text x="679.23" y="624.29" dominant-baseline="hanging" font-family="Arial" font-size="28pt" text-decoration="normal">2</text><text x="717.96" y="725.24" dominant-baseline="alphabetic" font-family="Arial" font-size="35pt" text-anchor="middle" text-decoration="normal">C</text><text x="645.53" y="724.24" dominant-baseline="alphabetic" font-family="Arial" font-size="35pt" text-decoration="normal">H</text><text x="679.23" y="707.24" dominant-baseline="hanging" font-family="Arial" font-size="28pt" text-decoration="normal">2</text><path fill="none" stroke="#111" stroke-linecap="round" stroke-linejoin="round" stroke-miterlimit="10" stroke-width="3.02" d="M717.955 655.995v29.444" paint-order="fill stroke markers"/><text x="800.9" y="642.29" dominant-baseline="alphabetic" font-family="Arial" font-size="35pt" text-anchor="middle" text-decoration="normal">O</text><text x="819.61" y="641.29" dominant-baseline="alphabetic" font-family="Arial" font-size="35pt" text-decoration="normal">H</text><path fill="none" stroke="#111" stroke-linecap="round" stroke-linejoin="round" stroke-miterlimit="10" stroke-width="3.02" d="M737.955 624.295h42.444" paint-order="fill stroke markers"/><text x="800.9" y="725.24" dominant-baseline="alphabetic" font-family="Arial" font-size="35pt" text-anchor="middle" text-decoration="normal">O</text><text x="819.61" y="724.24" dominant-baseline="alphabetic" font-family="Arial" font-size="35pt" text-decoration="normal">H</text><path fill="none" stroke="#111" stroke-linecap="round" stroke-linejoin="round" stroke-miterlimit="10" stroke-width="3.02" d="M737.955 707.239h42.444" paint-order="fill stroke markers"/><text x="1008.03" y="647.25" dominant-baseline="alphabetic" font-family="Arial" font-size="35pt" text-anchor="middle" text-decoration="normal">C</text><text x="1024.88" y="647.25" dominant-baseline="alphabetic" font-family="Arial" font-size="35pt" text-decoration="normal">OOH</text><text x="1008.03" y="730.19" dominant-baseline="alphabetic" font-family="Arial" font-size="35pt" text-anchor="middle" text-decoration="normal">C</text><text x="1024.88" y="730.19" dominant-baseline="alphabetic" font-family="Arial" font-size="35pt" text-decoration="normal">OOH</text><path fill="none" stroke="#111" stroke-linecap="round" stroke-linejoin="round" stroke-miterlimit="10" stroke-width="3.02" d="M1008.027 653.194v35.05" paint-order="fill stroke markers"/><path fill="none" stroke="#000" stroke-miterlimit="10" stroke-width="0.31" d="M1202.087 670.714h295.488" paint-order="fill stroke markers"/><path stroke="#000" stroke-miterlimit="10" stroke-width="0.31" d="m1497.575 670.714-3.592-6.22 19.144 6.22-19.144 6.221Z" paint-order="stroke fill markers"/><text x="1653.75" y="647.25" dominant-baseline="alphabetic" font-family="Arial" font-size="35pt" text-anchor="middle" text-decoration="normal">C</text><text x="1581.33" y="646.25" dominant-baseline="alphabetic" font-family="Arial" font-size="35pt" text-decoration="normal">H</text><text x="1615.03" y="629.25" dominant-baseline="hanging" font-family="Arial" font-size="28pt" text-decoration="normal">2</text><text x="1725.58" y="605.77" dominant-baseline="alphabetic" font-family="Arial" font-size="35pt" text-anchor="middle" text-decoration="normal">O</text><text x="1797.42" y="647.25" dominant-baseline="alphabetic" font-family="Arial" font-size="35pt" text-anchor="middle" text-decoration="normal">C</text><text x="1797.42" y="730.19" dominant-baseline="alphabetic" font-family="Arial" font-size="35pt" text-anchor="middle" text-decoration="normal">C</text><path fill="none" stroke="#111" stroke-linecap="round" stroke-linejoin="round" stroke-miterlimit="10" stroke-width="3.02" d="M1797.421 651.046v39.344" paint-order="fill stroke markers"/><text x="1725.58" y="771.66" dominant-baseline="alphabetic" font-family="Arial" font-size="35pt" text-anchor="middle" text-decoration="normal">O</text><text x="1653.75" y="730.19" dominant-baseline="alphabetic" font-family="Arial" font-size="35pt" text-anchor="middle" text-decoration="normal">C</text><text x="1581.33" y="729.19" dominant-baseline="alphabetic" font-family="Arial" font-size="35pt" text-decoration="normal">H</text><text x="1615.03" y="712.19" dominant-baseline="hanging" font-family="Arial" font-size="28pt" text-decoration="normal">2</text><text x="1869.25" y="605.77" dominant-baseline="alphabetic" font-family="Arial" font-size="35pt" text-anchor="middle" text-decoration="normal">O</text><text x="1869.25" y="771.66" dominant-baseline="alphabetic" font-family="Arial" font-size="35pt" text-anchor="middle" text-decoration="normal">O</text><text x="913.04" y="697.93" dominant-baseline="alphabetic" font-family="Arial" font-size="55.3" font-weight="400" text-decoration="normal">+</text></svg>
